!!!COM: Corelli, Arcangelo
!!!OTL: 
!!!ONM: Opus 6, No. 10
!!!OMV: 2
!!!CDT: 1653/2/17/-1713/1/8/
!!!OCY: Italia
**kern	**kern	**kern	**kern	**kern	**kern	**kern
*clefC	*clefG	*clefG	*clefG	*clefC	*clefG	*clefG
*k[]	*k[]	*k[]	*k[]	*k[]	*k[]	*k[]
*C:	*C:	*C:	*C:	*C:	*C:	*C:
*M4/4	*M4/4	*M4/4	*M4/4	*M4/4	*M4/4	*M4/4
=1	=1	=1	=1	=1	=1	=1
4C	4g	4ee	8cc	4C	4ee	8cc
.	.	.	8g	.	.	8g
4c	4r	4cc	8cc	4c	4cc	8cc
.	.	.	8ee	.	.	8ee
4B	4g	4gg	8dd	4B	4gg	8dd
.	.	.	8g	.	.	8g
4G	4g	4b	8dd	4G	4b	8dd
.	.	.	8gg	.	.	8gg
=2	=2	=2	=2	=2	=2	=2
4C	4g	4cc	8ee	4C	4cc	8ee
.	.	.	8cc	.	.	8cc
4c	4e	4c	8r	4c	4c	8r
.	.	.	8aa	.	.	8aa
4B	4d	4r	16aa	4B	4r	16aa
.	.	.	16gg	.	.	16gg
.	.	.	16ff	.	.	16ff
.	.	.	16ee	.	.	16ee
4BB	4g	4gg	8dd	4BB	4gg	8dd
.	.	.	8gg	.	.	8gg
=3	=3	=3	=3	=3	=3	=3
4AA	4r	4ccc	8gg	4AA	4ccc	8gg
.	.	.	8cc	.	.	8cc
4A	4c	4ff	8r	4A	4ff	8r
.	.	.	8ff	.	.	8ff
4G	4B	4r	16ff	4G	4r	16ff
.	.	.	16ee	.	.	16ee
.	.	.	16dd	.	.	16dd
.	.	.	16cc	.	.	16cc
4GG	4e	4ee	8b	4GG	4ee	8b
.	.	.	8ee	.	.	8ee
=4	=4	=4	=4	=4	=4	=4
4FF	4r	4aa	8ee	4FF	4aa	8ee
.	.	.	8a	.	.	8a
2F	4A	4dd	8r	2F	4dd	8r
.	.	.	8aa	.	.	8aa
.	8B	4r	8gg	.	4r	8gg
.	8G	.	8b	.	.	8b
8E	4c	4cc	8cc	8E	4cc	8cc
8F	.	.	8f	8F	.	8f
=5	=5	=5	=5	=5	=5	=5
4G	4r	4g	8e	4G	4g	8e
.	.	.	8cc	.	.	8cc
4GG	4g	4f	8d	4GG	4f	8d
.	.	.	8b	.	.	8b
4C	2g	4e	4c	4C	4e	4c
4c	.	4c	8r	4c	4c	8r
.	.	.	8cc	.	.	8cc
=6	=6	=6	=6	=6	=6	=6
4B	4g	4r	8dd	4B	4r	8dd
.	.	.	8g	.	.	8g
4G	4r	4dd	8dd	4G	4dd	8dd
.	.	.	8gg	.	.	8gg
4C	4g	4dd	8ee	4C	4dd	8ee
.	.	.	8cc	.	.	8cc
4c	4cc	4cc	8ee	4c	4cc	8ee
.	.	.	8gg	.	.	8gg
=7	=7	=7	=7	=7	=7	=7
4d	4a	4r	8ff#	4d	4r	8ff#
.	.	.	8dd	.	.	8dd
4D	4dd	4aa	8ff#	4D	4aa	8ff#
.	.	.	8aa	.	.	8aa
4G	4r	4aa	8bb	4G	4aa	8bb
.	.	.	8gg	.	.	8gg
4g	4b	4gg	8r	4g	4gg	8r
.	.	.	8ee	.	.	8ee
=8	=8	=8	=8	=8	=8	=8
4f#	4a	4r	16ee	4f#	4r	16ee
.	.	.	16dd	.	.	16dd
.	.	.	16cc	.	.	16cc
.	.	.	16b	.	.	16b
4F#	4dd	4dd	8a	4F#	4dd	8a
.	.	.	8dd	.	.	8dd
4E	4r	4gg	8dd	4E	4gg	8dd
.	.	.	8g	.	.	8g
4e	4g	4cc	8r	4e	4cc	8r
.	.	.	8cc	.	.	8cc
=9	=9	=9	=9	=9	=9	=9
4d	4f#	4r	16cc	4d	4r	16cc
.	.	.	16b	.	.	16b
.	.	.	16a	.	.	16a
.	.	.	16g	.	.	16g
4D	4b	4b	8f#	4D	4b	8f#
.	.	.	8b	.	.	8b
4C	4r	4ee	8b	4C	4ee	8b
.	.	.	8e	.	.	8e
[4c	4e	4a	8r	[4c	4a	8r
.	.	.	8ee	.	.	8ee
=10	=10	=10	=10	=10	=10	=10
4c]	8f#	4r	8dd	4c]	4r	8dd
.	8d	.	8f#	.	.	8f#
8B	4g	4g	8g	8B	4g	8g
8c	.	.	8c	8c	.	8c
4d	4r	4.dd	8B	4d	4.dd	8B
.	.	.	8g	.	.	8g
4D	4d	.	8A	4D	.	8A
.	.	8a	8f#	.	8a	8f#
=11	=11	=11	=11	=11	=11	=11
4G	4d	4b	4G	4G	4b	4G
4g	4b	4G	8r	4g	4G	8r
.	.	.	8ee	.	.	8ee
4f#	4a	4r	16ee	4f#	4r	16ee
.	.	.	16dd	.	.	16dd
.	.	.	16cc	.	.	16cc
.	.	.	16b	.	.	16b
4F#	4dd	4dd	8a	4F#	4dd	8a
.	.	.	8dd	.	.	8dd
=12	=12	=12	=12	=12	=12	=12
4E	4r	4gg	8dd	4E	4gg	8dd
.	.	.	8g	.	.	8g
4e	4g	4cc	8r	4e	4cc	8r
.	.	.	8cc	.	.	8cc
4d	4f#	4r	16cc	4d	4r	16cc
.	.	.	16b	.	.	16b
.	.	.	16a	.	.	16a
.	.	.	16g	.	.	16g
4D	4b	4b	8f#	4D	4b	8f#
.	.	.	8b	.	.	8b
=13	=13	=13	=13	=13	=13	=13
4C	4r	4ee	8b	4C	4ee	8b
.	.	.	8e	.	.	8e
2c	4e	4a	8r	2c	4a	8r
.	.	.	8ee	.	.	8ee
.	8f#	4r	8dd	.	4r	8dd
.	8d	.	8f#	.	.	8f#
8B	4g	4g	8g	8B	4g	8g
8c	.	.	8c	8c	.	8c
=14	=14	=14	=14	=14	=14	=14
4d	4r	4.dd	8B	4d	4.dd	8B
.	.	.	8g	.	.	8g
4D	4d	.	8A	4D	.	8A
.	.	8a	8f#	.	8a	8f#
4G	4d	4b	4G	4G	4b	4G
4BB	8r	8r	8r	4BB	8r	8r
.	8B	8g	8dd	.	8g	8dd
=15	=15	=15	=15	=15	=15	=15
4C	4A	8cc	8e	4C	8cc	8e
.	.	8b	8g	.	8b	8g
4D	4d	4a	8d	4D	4a	8d
.	.	.	8f#	.	.	8f#
2GG	2B	2g	2G	2GG	2g	2G
=16	=16	=16	=16	=16	=16	=16
4G	4d	4r	8b	4G	4r	8b
.	.	.	8g	.	.	8g
4r	4r	4dd	8b	4r	4dd	8b
.	.	.	8dd	.	.	8dd
4F#	4d	4r	8a	4F#	4r	8a
.	.	.	8d	.	.	8d
4r	4r	4dd	8a	4r	4dd	8a
.	.	.	8dd	.	.	8dd
=17	=17	=17	=17	=17	=17	=17
4G	4d	4r	8b	4G	4r	8b
.	.	.	8g	.	.	8g
4r	4r	4dd	8b	4r	4dd	8b
.	.	.	8dd	.	.	8dd
4F#	4d	4r	8a	4F#	4r	8a
.	.	.	8d	.	.	8d
4r	4r	4dd	8a	4r	4dd	8a
.	.	.	8dd	.	.	8dd
=18	=18	=18	=18	=18	=18	=18
4G	4d	4r	8b	4G	4r	8b
.	.	.	8g	.	.	8g
4r	4r	4ee	8b	4r	4ee	8b
.	.	.	8ee	.	.	8ee
4G#	4e	4r	8b	4G#	4r	8b
.	.	.	8e	.	.	8e
4r	4r	4ee	8b	4r	4ee	8b
.	.	.	8ee	.	.	8ee
=19	=19	=19	=19	=19	=19	=19
4A	4e	4r	8cc	4A	4r	8cc
.	.	.	8a	.	.	8a
4r	4r	4ee	8cc	4r	4ee	8cc
.	.	.	8ee	.	.	8ee
4G#	4e	4r	8b	4G#	4r	8b
.	.	.	8e	.	.	8e
4r	4r	4ee	8b	4r	4ee	8b
.	.	.	8ee	.	.	8ee
=20	=20	=20	=20	=20	=20	=20
4AA	4e	4r	8cc	4AA	4r	8cc
.	.	.	8a	.	.	8a
4A	4a	4cc	8cc	4A	4cc	8cc
.	.	.	8ff	.	.	8ff
4G#	4b	4b	8ff	4G#	4b	8ff
.	.	.	8b	.	.	8b
4G	4e	4ee	8b	4G	4ee	8b
.	.	.	8ee	.	.	8ee
=21	=21	=21	=21	=21	=21	=21
4F#	4r	4a	8ee	4F#	4a	8ee
.	.	.	8a	.	.	8a
4F	4A	2dd	8a	4F	2dd	8a
.	.	.	8aa	.	.	8aa
4E	4B	.	8gg#	4E	.	8gg#
.	.	.	16ff#	.	.	16ff#
.	.	.	16ee	.	.	16ee
8C	4A	8ee	8aa	8C	8ee	8aa
8D	.	8ff	8dd	8D	8ff	8dd
=22	=22	=22	=22	=22	=22	=22
4E	2e	4cc	8cc	4E	4cc	8cc
.	.	.	8aa	.	.	8aa
4EE	.	4b	8b	4EE	4b	8b
.	.	.	8gg#	.	.	8gg#
4AA	4e	4a	8a	4AA	4a	8a
.	.	.	8e	.	.	8e
4A	4r	4r	8a	4A	4r	8a
.	.	.	8e	.	.	8e
=23	=23	=23	=23	=23	=23	=23
4G#	4r	4e	8b	4G#	4e	8b
.	.	.	8e	.	.	8e
4E	4e	4r	8b	4E	4r	8b
.	.	.	8e	.	.	8e
4r	4A	4e	8cc	4r	4e	8cc
.	.	.	8e	.	.	8e
4A	4r	4r	8a	4A	4r	8a
.	.	.	8e	.	.	8e
=24	=24	=24	=24	=24	=24	=24
4G#	4r	4e	8b	4G#	4e	8b
.	.	.	8e	.	.	8e
4E	4e	4r	8b	4E	4r	8b
.	.	.	8e	.	.	8e
4r	4A	4.e	8cc	4r	4.e	8cc
.	.	.	8ee	.	.	8ee
4A	4cc	.	[4aa	4A	.	[4aa
.	.	8ee	.	.	8ee	.
=25	=25	=25	=25	=25	=25	=25
4B	4f#	8dd#	4aa]	4B	8dd#	4aa]
.	.	8b	.	.	8b	.
4E	8g	2ee	8gg	4E	2ee	8gg
.	8a	.	8ff#	.	.	8ff#
4B	2b	.	4gg	4B	.	4gg
4BB	.	4dd#	4ff#	4BB	4dd#	4ff#
=26	=26	=26	=26	=26	=26	=26
8e	4b	4r	4ee	8e	4r	4ee
8d	.	.	.	8d	.	.
8c	4r	4ee	4r	8c	4ee	4r
8B	.	.	.	8B	.	.
8c	8e	4r	4ee	8c	4r	4ee
8B	8d	.	.	8B	.	.
8A	8c	4ee	4r	8A	4ee	4r
8G#	8B	.	.	8G#	.	.
=27	=27	=27	=27	=27	=27	=27
4A	4c	4r	8ee	4A	4r	8ee
.	.	.	8dd	.	.	8dd
4r	4A	8ee	8cc	4r	8ee	8cc
.	.	8dd	8b	.	8dd	8b
4AA	4a	8cc	8a	4AA	8cc	8a
.	.	8b	8g	.	8b	8g
4r	4r	8a	8f#	4r	8a	8f#
.	.	8g	8e	.	8g	8e
=28	=28	=28	=28	=28	=28	=28
4BB	4a	4f#	4d#	4BB	4f#	4d#
4E	8g	4g	2e	4E	4g	2e
.	8a	.	.	.	.	.
4B	2b	2f#	.	4B	2f#	.
4BB	.	.	4d#	4BB	.	4d#
=29	=29	=29	=29	=29	=29	=29
4E	2b	2e	2e	4E	2e	2e
4D	.	.	.	4D	.	.
4C	4g	4ee	8cc	4C	4ee	8cc
.	.	.	8g	.	.	8g
4c	4r	4cc	8cc	4c	4cc	8cc
.	.	.	8ee	.	.	8ee
=30	=30	=30	=30	=30	=30	=30
4B	4g	4gg	8dd	4B	4gg	8dd
.	.	.	8g	.	.	8g
4G	4g	4b	8dd	4G	4b	8dd
.	.	.	8gg	.	.	8gg
4C	4g	4cc	8ee	4C	4cc	8ee
.	.	.	8cc	.	.	8cc
4c	4e	4c	8r	4c	4c	8r
.	.	.	8aa	.	.	8aa
=31	=31	=31	=31	=31	=31	=31
4B	4d	4r	16aa	4B	4r	16aa
.	.	.	16gg	.	.	16gg
.	.	.	16ff	.	.	16ff
.	.	.	16ee	.	.	16ee
4BB	4g	4gg	8dd	4BB	4gg	8dd
.	.	.	8gg	.	.	8gg
4AA	4r	4ccc	8gg	4AA	4ccc	8gg
.	.	.	8cc	.	.	8cc
4A	4c	4ff	8r	4A	4ff	8r
.	.	.	8ff	.	.	8ff
=32	=32	=32	=32	=32	=32	=32
4G	4B	4r	16ff	4G	4r	16ff
.	.	.	16ee	.	.	16ee
.	.	.	16dd	.	.	16dd
.	.	.	16cc	.	.	16cc
4GG	4e	4ee	8b	4GG	4ee	8b
.	.	.	8ee	.	.	8ee
4FF	4r	4aa	8ee	4FF	4aa	8ee
.	.	.	8a	.	.	8a
[4F	4A	4dd	8r	[4F	4dd	8r
.	.	.	8aa	.	.	8aa
=33	=33	=33	=33	=33	=33	=33
4F]	8B	4r	8gg	4F]	4r	8gg
.	8G	.	8b	.	.	8b
8E	4c	4cc	8cc	8E	4cc	8cc
8F	.	.	8f	8F	.	8f
4G	4r	4g	8e	4G	4g	8e
.	.	.	8cc	.	.	8cc
4GG	4g	4f	8d	4GG	4f	8d
.	.	.	8b	.	.	8b
=34	=34	=34	=34	=34	=34	=34
4C	4g	4e	4c	4C	4e	4c
4c	4e	4c	8r	4c	4c	8r
.	.	.	8aa	.	.	8aa
4B	4d	4r	16aa	4B	4r	16aa
.	.	.	16gg	.	.	16gg
.	.	.	16ff	.	.	16ff
.	.	.	16ee	.	.	16ee
4BB	4g	4gg	8dd	4BB	4gg	8dd
.	.	.	8gg	.	.	8gg
=35	=35	=35	=35	=35	=35	=35
4AA	4r	4ccc	8gg	4AA	4ccc	8gg
.	.	.	8cc	.	.	8cc
4A	4c	4ff	8r	4A	4ff	8r
.	.	.	8ff	.	.	8ff
4G	4B	4r	16ff	4G	4r	16ff
.	.	.	16ee	.	.	16ee
.	.	.	16dd	.	.	16dd
.	.	.	16cc	.	.	16cc
4GG	4e	4ee	8b	4GG	4ee	8b
.	.	.	8ee	.	.	8ee
=36	=36	=36	=36	=36	=36	=36
4FF	4r	4aa	8ee	4FF	4aa	8ee
.	.	.	8a	.	.	8a
2F	4A	4dd	8r	2F	4dd	8r
.	.	.	8aa	.	.	8aa
.	8B	4r	8gg	.	4r	8gg
.	8G	.	8b	.	.	8b
8E	4c	4cc	8cc	8E	4cc	8cc
8F	.	.	8f	8F	.	8f
=37	=37	=37	=37	=37	=37	=37
4G	4r	4g	8e	4G	4g	8e
.	.	.	8cc	.	.	8cc
4GG	4g	4f	8d	4GG	4f	8d
.	.	.	8b	.	.	8b
4C	4g	4e	4c	4C	4e	4c
4E	8r	8r	8r	4E	8r	8r
.	8c	8g	8ee	.	8g	8ee
=38	=38	=38	=38	=38	=38	=38
4F	4d	8f	8a	4F	8f	8a
.	.	8e	8cc	.	8e	8cc
4G	4g	4d	8G	4G	4d	8G
.	.	.	8b	.	.	8b
2C	2e	2c	2c	2C	2c	2c
==	==	==	==	==	==	==
*-	*-	*-	*-	*-	*-	*-
!!!RWG: This file only contains pitch and duration data.
!!!RWG: Transposing instruments are not transposed.
!!!RWG: Durations of rests and tied notes may be interpreted.
!!!RWG: Key is interpreted using the Humdrum key tool.
!!!SCA: 
!!!YOR: Chrysander Edition
!!!AGN: concerto grosso
!!!AFT: stage1
!!!ENC: F. Bennion
!!!END: 1997/04/15
!!!AST: baroque
!!!YEC: Copyright 1994, Center for Computer Assisted Research in the Humanities
!!!YEM: Rights to all derivative electronic formats reserved.
!!!YEM: Refer to licensing agreement for further details.
!!!YEN: United States of America
!!!EED: W.B. Hewlett
!!!KEY: 2194178417
!!!EMD: Converted from MuseData to Humdrum Aug 2, 1999, by Bret Aarden using muse2kern.
!!!VTS: 532014584
